X:2331
T:Untitled
T:Gyn ennym 
C:Traditional
O:Isle of Man
B:Kiaull Vannin 331
L:1/4
M:4/4 
Q:80 
K:D 
A/|F A A>A|G BB>d|c cB c|dB A>A|G A GF|E3z/ A/| 
F A A>A|G B B>d|c c B c|d e f>A|F A A>A|G B B>d|c c B c|d3 z/|| 

